pippo.cube
TITLE ""
LUT_3D_SIZE 8
DOMAIN_MIN 0.000 0.000 0.000
DOMAIN_MAX 1.000 1.000 1.000
0.000000 0.000000 0.000000
0.000000 0.000000 0.015873
0.000000 0.015873 0.000000
0.015873 0.000000 0.000000
0.000000 0.000000 0.031746
0.000000 0.031746 0.000000
0.031746 0.000000 0.000000
0.000000 0.000000 0.047619
0.000000 0.047619 0.000000
0.047619 0.000000 0.000000
0.000000 0.000000 0.063492
0.000000 0.063492 0.000000
0.063492 0.000000 0.000000
0.000000 0.000000 0.079365
0.000000 0.079365 0.000000
0.079365 0.000000 0.000000
0.000000 0.000000 0.095238
0.000000 0.095238 0.000000
0.095238 0.000000 0.000000
0.000000 0.000000 0.111111
0.000000 0.111111 0.000000
0.111111 0.000000 0.000000
0.000000 0.000000 0.126984
0.000000 0.126984 0.000000
0.126984 0.000000 0.000000
0.000000 0.000000 0.142857
0.000000 0.142857 0.000000
0.142857 0.000000 0.000000
0.000000 0.000000 0.158730
0.000000 0.158730 0.000000
0.158730 0.000000 0.000000
0.000000 0.000000 0.174603
0.000000 0.174603 0.000000
0.174603 0.000000 0.000000
0.000000 0.000000 0.190476
0.000000 0.190476 0.000000
0.190476 0.000000 0.000000
0.000000 0.000000 0.206349
0.000000 0.206349 0.000000
0.206349 0.000000 0.000000
0.000000 0.000000 0.222222
0.000000 0.222222 0.000000
0.222222 0.000000 0.000000
0.000000 0.000000 0.238095
0.000000 0.238095 0.000000
0.238095 0.000000 0.000000
0.000000 0.000000 0.253968
0.000000 0.253968 0.000000
0.253968 0.000000 0.000000
0.000000 0.000000 0.269841
0.000000 0.269841 0.000000
0.269841 0.000000 0.000000
0.000000 0.000000 0.285714
0.000000 0.285714 0.000000
0.285714 0.000000 0.000000
0.000000 0.000000 0.301587
0.000000 0.301587 0.000000
0.301587 0.000000 0.000000
0.000000 0.000000 0.317460
0.000000 0.317460 0.000000
0.317460 0.000000 0.000000
0.000000 0.000000 0.333333
0.000000 0.333333 0.000000
0.333333 0.000000 0.000000
0.000000 0.000000 0.349206
0.000000 0.349206 0.000000
0.349206 0.000000 0.000000
0.000000 0.000000 0.365079
0.000000 0.365079 0.000000
0.365079 0.000000 0.000000
0.000000 0.000000 0.380952
0.000000 0.380952 0.000000
0.380952 0.000000 0.000000
0.000000 0.000000 0.396825
0.000000 0.396825 0.000000
0.396825 0.000000 0.000000
0.000000 0.000000 0.412698
0.000000 0.412698 0.000000
0.412698 0.000000 0.000000
0.000000 0.000000 0.428571
0.000000 0.428571 0.000000
0.428571 0.000000 0.000000
0.000000 0.000000 0.444444
0.000000 0.444444 0.000000
0.444444 0.000000 0.000000
0.000000 0.000000 0.460317
0.000000 0.460317 0.000000
0.460317 0.000000 0.000000
0.000000 0.000000 0.476190
0.000000 0.476190 0.000000
0.476190 0.000000 0.000000
0.000000 0.000000 0.492063
0.000000 0.492063 0.000000
0.492063 0.000000 0.000000
0.000000 0.000000 0.507937
0.000000 0.507937 0.000000
0.507937 0.000000 0.000000
0.000000 0.000000 0.523810
0.000000 0.523810 0.000000
0.523810 0.000000 0.000000
0.000000 0.000000 0.539683
0.000000 0.539683 0.000000
0.539683 0.000000 0.000000
0.000000 0.000000 0.555556
0.000000 0.555556 0.000000
0.555556 0.000000 0.000000
0.000000 0.000000 0.571429
0.000000 0.571429 0.000000
0.571429 0.000000 0.000000
0.000000 0.000000 0.587302
0.000000 0.587302 0.000000
0.587302 0.000000 0.000000
0.000000 0.000000 0.603175
0.000000 0.603175 0.000000
0.603175 0.000000 0.000000
0.000000 0.000000 0.619048
0.000000 0.619048 0.000000
0.619048 0.000000 0.000000
0.000000 0.000000 0.634921
0.000000 0.634921 0.000000
0.634921 0.000000 0.000000
0.000000 0.000000 0.650794
0.000000 0.650794 0.000000
0.650794 0.000000 0.000000
0.000000 0.000000 0.666667
0.000000 0.666667 0.000000
0.666667 0.000000 0.000000
0.000000 0.000000 0.682540
0.000000 0.682540 0.000000
0.682540 0.000000 0.000000
0.000000 0.000000 0.698413
0.000000 0.698413 0.000000
0.698413 0.000000 0.000000
0.000000 0.000000 0.714286
0.000000 0.714286 0.000000
0.714286 0.000000 0.000000
0.000000 0.000000 0.730159
0.000000 0.730159 0.000000
0.730159 0.000000 0.000000
0.000000 0.000000 0.746032
0.000000 0.746032 0.000000
0.746032 0.000000 0.000000
0.000000 0.000000 0.761905
0.000000 0.761905 0.000000
0.761905 0.000000 0.000000
0.000000 0.000000 0.777778
0.000000 0.777778 0.000000
0.777778 0.000000 0.000000
0.000000 0.000000 0.793651
0.000000 0.793651 0.000000
0.793651 0.000000 0.000000
0.000000 0.000000 0.809524
0.000000 0.809524 0.000000
0.809524 0.000000 0.000000
0.000000 0.000000 0.825397
0.000000 0.825397 0.000000
0.825397 0.000000 0.000000
0.000000 0.000000 0.841270
0.000000 0.841270 0.000000
0.841270 0.000000 0.000000
0.000000 0.000000 0.857143
0.000000 0.857143 0.000000
0.857143 0.000000 0.000000
0.000000 0.000000 0.873016
0.000000 0.873016 0.000000
0.873016 0.000000 0.000000
0.000000 0.000000 0.888889
0.000000 0.888889 0.000000
0.888889 0.000000 0.000000
0.000000 0.000000 0.904762
0.000000 0.904762 0.000000
0.904762 0.000000 0.000000
0.000000 0.000000 0.920635
0.000000 0.920635 0.000000
0.920635 0.000000 0.000000
0.000000 0.000000 0.936508
0.000000 0.936508 0.000000
0.936508 0.000000 0.000000
0.000000 0.000000 0.952381
0.000000 0.952381 0.000000
0.952381 0.000000 0.000000
0.000000 0.000000 0.968254
0.000000 0.968254 0.000000
0.968254 0.000000 0.000000
0.000000 0.000000 0.984127
0.000000 0.984127 0.000000
0.984127 0.000000 0.000000
0.000000 0.000000 1.000000
0.000000 1.000000 0.000000
1.000000 0.000000 0.000000
0.000000 0.000000 0.000000
0.000000 0.000000 0.015873
0.000000 0.015873 0.000000
0.015873 0.000000 0.015873
0.000000 0.015873 0.015873
0.015873 0.015873 0.000000
0.015873 0.000000 0.031746
0.000000 0.031746 0.015873
0.031746 0.015873 0.000000
0.015873 0.000000 0.047619
0.000000 0.047619 0.015873
0.047619 0.015873 0.000000
0.015873 0.000000 0.063492
0.000000 0.063492 0.015873
0.063492 0.015873 0.000000
0.015873 0.000000 0.079365
0.000000 0.079365 0.015873
0.079365 0.015873 0.000000
0.015873 0.000000 0.095238
0.000000 0.095238 0.015873
0.095238 0.015873 0.000000
0.015873 0.000000 0.111111
0.000000 0.111111 0.015873
0.111111 0.015873 0.000000
0.015873 0.000000 0.126984
0.000000 0.126984 0.015873
0.126984 0.015873 0.000000
0.015873 0.000000 0.142857
0.000000 0.142857 0.015873
0.142857 0.015873 0.000000
0.015873 0.000000 0.158730
0.000000 0.158730 0.015873
0.158730 0.015873 0.000000
0.015873 0.000000 0.174603
0.000000 0.174603 0.015873
0.174603 0.015873 0.000000
0.015873 0.000000 0.190476
0.000000 0.190476 0.015873
0.190476 0.015873 0.000000
0.015873 0.000000 0.206349
0.000000 0.206349 0.015873
0.206349 0.015873 0.000000
0.015873 0.000000 0.222222
0.000000 0.222222 0.015873
0.222222 0.015873 0.000000
0.015873 0.000000 0.238095
0.000000 0.238095 0.015873
0.238095 0.015873 0.000000
0.015873 0.000000 0.253968
0.000000 0.253968 0.015873
0.253968 0.015873 0.000000
0.015873 0.000000 0.269841
0.000000 0.269841 0.015873
0.269841 0.015873 0.000000
0.015873 0.000000 0.285714
0.000000 0.285714 0.015873
0.285714 0.015873 0.000000
0.015873 0.000000 0.301587
0.000000 0.301587 0.015873
0.301587 0.015873 0.000000
0.015873 0.000000 0.317460
0.000000 0.317460 0.015873
0.317460 0.015873 0.000000
0.015873 0.000000 0.333333
0.000000 0.333333 0.015873
0.333333 0.015873 0.000000
0.015873 0.000000 0.349206
0.000000 0.349206 0.015873
0.349206 0.015873 0.000000
0.015873 0.000000 0.365079
0.000000 0.365079 0.015873
0.365079 0.015873 0.000000
0.015873 0.000000 0.380952
0.000000 0.380952 0.015873
0.380952 0.015873 0.000000
0.015873 0.000000 0.396825
0.000000 0.396825 0.015873
0.396825 0.015873 0.000000
0.015873 0.000000 0.412698
0.000000 0.412698 0.015873
0.412698 0.015873 0.000000
0.015873 0.000000 0.428571
0.000000 0.428571 0.015873
0.428571 0.015873 0.000000
0.015873 0.000000 0.444444
0.000000 0.444444 0.015873
0.444444 0.015873 0.000000
0.015873 0.000000 0.460317
0.000000 0.460317 0.015873
0.460317 0.015873 0.000000
0.015873 0.000000 0.476190
0.000000 0.476190 0.015873
0.476190 0.015873 0.000000
0.015873 0.000000 0.492063
0.000000 0.492063 0.015873
0.492063 0.015873 0.000000
0.015873 0.000000 0.507937
0.000000 0.507937 0.015873
0.507937 0.015873 0.000000
0.015873 0.000000 0.523810
0.000000 0.523810 0.015873
0.523810 0.015873 0.000000
0.015873 0.000000 0.539683
0.000000 0.539683 0.015873
0.539683 0.015873 0.000000
0.015873 0.000000 0.555556
0.000000 0.555556 0.015873
0.555556 0.015873 0.000000
0.015873 0.000000 0.571429
0.000000 0.571429 0.015873
0.571429 0.015873 0.000000
0.015873 0.000000 0.587302
0.000000 0.587302 0.015873
0.587302 0.015873 0.000000
0.015873 0.000000 0.603175
0.000000 0.603175 0.015873
0.603175 0.015873 0.000000
0.015873 0.000000 0.619048
0.000000 0.619048 0.015873
0.619048 0.015873 0.000000
0.015873 0.000000 0.634921
0.000000 0.634921 0.015873
0.634921 0.015873 0.000000
0.015873 0.000000 0.650794
0.000000 0.650794 0.015873
0.650794 0.015873 0.000000
0.015873 0.000000 0.666667
0.000000 0.666667 0.015873
0.666667 0.015873 0.000000
0.015873 0.000000 0.682540
0.000000 0.682540 0.015873
0.682540 0.015873 0.000000
0.015873 0.000000 0.698413
0.000000 0.698413 0.015873
0.698413 0.015873 0.000000
0.015873 0.000000 0.714286
0.000000 0.714286 0.015873
0.714286 0.015873 0.000000
0.015873 0.000000 0.730159
0.000000 0.730159 0.015873
0.730159 0.015873 0.000000
0.015873 0.000000 0.746032
0.000000 0.746032 0.015873
0.746032 0.015873 0.000000
0.015873 0.000000 0.761905
0.000000 0.761905 0.015873
0.761905 0.015873 0.000000
0.015873 0.000000 0.777778
0.000000 0.777778 0.015873
0.777778 0.015873 0.000000
0.015873 0.000000 0.793651
0.000000 0.793651 0.015873
0.793651 0.015873 0.000000
0.015873 0.000000 0.809524
0.000000 0.809524 0.015873
0.809524 0.015873 0.000000
0.015873 0.000000 0.825397
0.000000 0.825397 0.015873
0.825397 0.015873 0.000000
0.015873 0.000000 0.841270
0.000000 0.841270 0.015873
0.841270 0.015873 0.000000
0.015873 0.000000 0.857143
0.000000 0.857143 0.015873
0.857143 0.015873 0.000000
0.015873 0.000000 0.873016
0.000000 0.873016 0.015873
0.873016 0.015873 0.000000
0.015873 0.000000 0.888889
0.000000 0.888889 0.015873
0.888889 0.015873 0.000000
0.015873 0.000000 0.904762
0.000000 0.904762 0.015873
0.904762 0.015873 0.000000
0.015873 0.000000 0.920635
0.000000 0.920635 0.015873
0.920635 0.015873 0.000000
0.015873 0.000000 0.936508
0.000000 0.936508 0.015873
0.936508 0.015873 0.000000
0.015873 0.000000 0.952381
0.000000 0.952381 0.015873
0.952381 0.015873 0.000000
0.015873 0.000000 0.968254
0.000000 0.968254 0.015873
0.968254 0.015873 0.000000
0.015873 0.000000 0.984127
0.000000 0.984127 0.015873
0.984127 0.015873 0.000000
0.015873 0.000000 1.000000
0.000000 1.000000 0.015873
1.000000 0.015873 0.000000
0.015873 0.000000 0.000000
0.000000 0.000000 0.031746
0.000000 0.031746 0.000000
0.031746 0.000000 0.015873
0.000000 0.015873 0.031746
0.015873 0.031746 0.000000
0.031746 0.000000 0.031746
0.000000 0.031746 0.031746
0.031746 0.031746 0.000000
0.031746 0.000000 0.047619
0.000000 0.047619 0.031746
0.047619 0.031746 0.000000
0.031746 0.000000 0.063492
0.000000 0.063492 0.031746
0.063492 0.031746 0.000000
0.031746 0.000000 0.079365
0.000000 0.079365 0.031746
0.079365 0.031746 0.000000
0.031746 0.000000 0.095238
0.000000 0.095238 0.031746
0.095238 0.031746 0.000000
0.031746 0.000000 0.111111
0.000000 0.111111 0.031746
0.111111 0.031746 0.000000
0.031746 0.000000 0.126984
0.000000 0.126984 0.031746
0.126984 0.031746 0.000000
0.031746 0.000000 0.142857
0.000000 0.142857 0.031746
0.142857 0.031746 0.000000
0.031746 0.000000 0.158730
0.000000 0.158730 0.031746
0.158730 0.031746 0.000000
0.031746 0.000000 0.174603
0.000000 0.174603 0.031746
0.174603 0.031746 0.000000
0.031746 0.000000 0.190476
0.000000 0.190476 0.031746
0.190476 0.031746 0.000000
0.031746 0.000000 0.206349
0.000000 0.206349 0.031746
0.206349 0.031746 0.000000
0.031746 0.000000 0.222222
0.000000 0.222222 0.031746
0.222222 0.031746 0.000000
0.031746 0.000000 0.238095
0.000000 0.238095 0.031746
0.238095 0.031746 0.000000
0.031746 0.000000 0.253968
0.000000 0.253968 0.031746
0.253968 0.031746 0.000000
0.031746 0.000000 0.269841
0.000000 0.269841 0.031746
0.269841 0.031746 0.000000
0.031746 0.000000 0.285714
0.000000 0.285714 0.031746
0.285714 0.031746 0.000000
0.031746 0.000000 0.301587
0.000000 0.301587 0.031746
0.301587 0.031746 0.000000
0.031746 0.000000 0.317460
0.000000 0.317460 0.031746
0.317460 0.031746 0.000000
0.031746 0.000000 0.333333
0.000000 0.333333 0.031746
0.333333 0.031746 0.000000
0.031746 0.000000 0.349206
0.000000 0.349206 0.031746
0.349206 0.031746 0.000000
0.031746 0.000000 0.365079
0.000000 0.365079 0.031746
0.365079 0.031746 0.000000
0.031746 0.000000 0.380952
0.000000 0.380952 0.031746
0.380952 0.031746 0.000000
0.031746 0.000000 0.396825
0.000000 0.396825 0.031746
0.396825 0.031746 0.000000
0.031746 0.000000 0.412698
0.000000 0.412698 0.031746
0.412698 0.031746 0.000000
0.031746 0.000000 0.428571
0.000000 0.428571 0.031746
0.428571 0.031746 0.000000
0.031746 0.000000 0.444444
0.000000 0.444444 0.031746
0.444444 0.031746 0.000000
0.031746 0.000000 0.460317
0.000000 0.460317 0.031746
0.460317 0.031746 0.000000
0.031746 0.000000 0.476190
0.000000 0.476190 0.031746
0.476190 0.031746 0.000000
0.031746 0.000000 0.492063
0.000000 0.492063 0.031746
0.492063 0.031746 0.000000
0.031746 0.000000 0.507937
0.000000 0.507937 0.031746
0.507937 0.031746 0.000000
0.031746 0.000000 0.523810
0.000000 0.523810 0.031746
0.523810 0.031746 0.000000
0.031746 0.000000 0.539683
0.000000 0.539683 0.031746
0.539683 0.031746 0.000000
0.031746 0.000000 0.555556
0.000000 0.555556 0.031746
0.555556 0.031746 0.000000
0.031746 0.000000 0.571429
0.000000 0.571429 0.031746
0.571429 0.031746 0.000000
0.031746 0.000000 0.587302
0.000000 0.587302 0.031746
0.587302 0.031746 0.000000
0.031746 0.000000 0.603175
0.000000 0.603175 0.031746
0.603175 0.031746 0.000000
0.031746 0.000000 0.619048
0.000000 0.619048 0.031746
0.619048 0.031746 0.000000
0.031746 0.000000 0.634921
0.000000 0.634921 0.031746
0.634921 0.031746 0.000000
0.031746 0.000000 0.650794
0.000000 0.650794 0.031746
0.650794 0.031746 0.000000
0.031746 0.000000 0.666667
0.000000 0.666667 0.031746
0.666667 0.031746 0.000000
0.031746 0.000000 0.682540
